svg/material-icons/door_sliding/materialiconstwotone/24px.svg

<svg xmlns="http://www.w3.org/2000/svg" width="24" height="24" viewBox="0 0 24 24"><path d="M13 19h5V5h-5v14zm1-8h2v2h-2v-2zm-8 8h5V5H6v14zm2-8h2v2H8v-2z" opacity=".3"/><path d="M20 19V5c0-1.1-.9-2-2-2H6c-1.1 0-2 .9-2 2v14H3v2h18v-2h-1zm-9 0H6V5h5v14zm7 0h-5V5h5v14z"/><path d="M8 11h2v2H8zm6 0h2v2h-2z"/></svg>

<svg xmlns="http://www.w3.org/2000/svg" enable-background="new 0 0 24 24" height="24" viewBox="0 0 24 24" width="24"><g><path d="M0,0h24v24H0V0z" fill="none"/></g><g><g><path d="M13,19h5V5h-5V19z M14,11h2v2h-2V11z" opacity=".3"/><path d="M6,19h5V5H6V19z M8,11h2v2H8V11z" opacity=".3"/><path d="M20,19V5c0-1.1-0.9-2-2-2H6C4.9,3,4,3.9,4,5v14H3v2h18v-2H20z M11,19H6V5h5V19z M18,19h-5V5h5V19z"/><rect height="2" width="2" x="8" y="11"/><rect height="2" width="2" x="14" y="11"/></g></g></svg>
